src/svg/cited-speech.svg

<svg width="17" height="16" viewBox="0 0 17 16" fill="none" xmlns="http://www.w3.org/2000/svg">
<path d="M3.16593 11.0436H1.56444C1.26622 11.0436 0.980216 10.9181 0.769342 10.6948C0.558468 10.4714 0.44 10.1685 0.44 9.85263V1.19098C0.44 0.875111 0.558468 0.572181 0.769342 0.348829C0.980216 0.125478 1.26622 0 1.56444 0H15.8756C16.1738 0 16.4598 0.125478 16.6707 0.348829C16.8815 0.572181 17 0.875111 17 1.19098V9.85263C17 10.1685 16.8815 10.4714 16.6707 10.6948C16.4598 10.9181 16.1738 11.0436 15.8756 11.0436H7.39111L3.16593 14.4V11.0436Z" fill="#E1EDF3"/>
<path d="M3.16593 11.0436H1.56444C1.26622 11.0436 0.980216 10.9181 0.769342 10.6948C0.558468 10.4714 0.44 10.1685 0.44 9.85263V1.19098C0.44 0.875111 0.558468 0.572181 0.769342 0.348829C0.980216 0.125478 1.26622 0 1.56444 0H15.8756C16.1738 0 16.4598 0.125478 16.6707 0.348829C16.8815 0.572181 17 0.875111 17 1.19098V9.85263C17 10.1685 16.8815 10.4714 16.6707 10.6948C16.4598 10.9181 16.1738 11.0436 15.8756 11.0436H7.39111L3.16593 14.4V11.0436Z" fill="url(#paint0_linear)"/>
<path d="M15.6752 0.504C15.9036 0.504 16.1226 0.602614 16.2841 0.778148C16.4456 0.953682 16.5363 1.19176 16.5363 1.44V10.08C16.5363 10.3282 16.4456 10.5663 16.2841 10.7419C16.1226 10.9174 15.9036 11.016 15.6752 11.016H7.35546L7.2296 11.1168L3.55328 14.112V11.016H1.7648C1.53642 11.016 1.31739 10.9174 1.1559 10.7419C0.994404 10.5663 0.90368 10.3282 0.90368 10.08V1.44C0.90368 1.19176 0.994404 0.953682 1.1559 0.778148C1.31739 0.602614 1.53642 0.504 1.7648 0.504H15.6752ZM15.6752 0H1.7648C1.41344 0 1.07647 0.151714 0.828025 0.421766C0.579576 0.691819 0.44 1.05809 0.44 1.44L0.44 10.08C0.44 10.4619 0.579576 10.8282 0.828025 11.0982C1.07647 11.3683 1.41344 11.52 1.7648 11.52H3.0896V15.12L7.50781 11.52H15.6752C16.0266 11.52 16.3635 11.3683 16.612 11.0982C16.8604 10.8282 17 10.4619 17 10.08V1.44C17 1.05809 16.8604 0.691819 16.612 0.421766C16.3635 0.151714 16.0266 0 15.6752 0V0Z" fill="#333F56"/>
<path d="M13.5294 5.02469C13.5294 5.13231 13.5294 5.23993 13.5294 5.34755C13.5294 5.45517 13.5294 5.34755 13.5294 5.34755C13.4969 5.79344 13.3958 6.23164 13.2296 6.64667C13.0285 7.17129 12.7428 7.65946 12.384 8.09184C12.0296 8.50891 11.6089 8.86473 11.1387 9.14497C10.6773 9.42943 10.1778 9.64684 9.65512 9.79068C9.65512 9.79068 10.5545 8.48388 11.4923 7.20014H11.377C10.9614 7.20115 10.5543 7.08223 10.2046 6.85764C9.85483 6.63304 9.57733 6.31232 9.40533 5.93395C9.23333 5.55557 9.17415 5.1356 9.23489 4.72443C9.29562 4.31325 9.47369 3.92833 9.74774 3.61584C10.0218 3.30335 10.3802 3.07656 10.7799 2.96267C11.1796 2.84878 11.6037 2.85264 12.0013 2.97377C12.3989 3.09491 12.7531 3.32818 13.0214 3.6456C13.2897 3.96303 13.4608 4.35112 13.514 4.76333C13.53 4.84947 13.5352 4.93727 13.5294 5.02469V5.02469Z" fill="#333F56"/>
<path d="M8.35772 5.06068C8.35772 5.1683 8.35772 5.27592 8.35772 5.38354C8.35772 5.49116 8.35772 5.38354 8.35772 5.38354C8.32524 5.82943 8.22412 6.26763 8.05792 6.68266C7.85677 7.20728 7.57114 7.69545 7.21234 8.12783C6.85791 8.5449 6.43717 8.90072 5.96703 9.18096C5.5056 9.46542 5.00606 9.68283 4.48343 9.82667C4.48343 9.82667 5.38281 8.51987 6.32064 7.23613H6.20533C5.7897 7.23714 5.3826 7.11822 5.03287 6.89363C4.68314 6.66904 4.40563 6.34831 4.23363 5.96994C4.06163 5.59156 4.00245 5.17159 4.06319 4.76042C4.12392 4.34925 4.30199 3.96432 4.57604 3.65183C4.85009 3.33934 5.20847 3.11255 5.6082 2.99866C6.00793 2.88478 6.43202 2.88863 6.82961 3.00977C7.22721 3.1309 7.58141 3.36417 7.84973 3.68159C8.11805 3.99902 8.28909 4.38711 8.34234 4.79932C8.35832 4.88546 8.36348 4.97326 8.35772 5.06068V5.06068Z" fill="#333F56"/>
<defs>
<linearGradient id="paint0_linear" x1="8.72" y1="0" x2="8.72" y2="14.4" gradientUnits="userSpaceOnUse">
<stop stop-color="white" stop-opacity="0.55"/>
<stop offset="1" stop-color="white" stop-opacity="0"/>
</linearGradient>
</defs>
</svg>

<svg xmlns="http://www.w3.org/2000/svg" viewBox="0 0 17 16" fill="currentColor">
  <path d="M3.17 11.04h-1.6c-.3 0-.59-.12-.8-.35a1.23 1.23 0 01-.33-.84V1.2C.44.88.56.57.77.35c.21-.22.5-.35.8-.35h14.3c.3 0 .59.13.8.35.21.22.33.53.33.84v8.66c0 .32-.12.62-.33.84-.21.23-.5.35-.8.35H7.4L3.17 14.4v-3.36z" fill="url(#paint0_linear)"/>
  <path d="M15.68.5c.22 0 .44.1.6.28.17.17.26.41.26.66v8.64c0 .25-.1.49-.26.66a.83.83 0 01-.6.28H7.36l-.13.1-3.68 3v-3.1H1.76a.83.83 0 01-.6-.28.98.98 0 01-.26-.66V1.44c0-.25.1-.49.26-.66a.83.83 0 01.6-.28h13.92zm0-.5H1.76c-.35 0-.68.15-.93.42a1.5 1.5 0 00-.39 1.02v8.64c0 .38.14.75.39 1.02s.58.42.93.42H3.1v3.6l4.42-3.6h8.17c.35 0 .68-.15.93-.42s.39-.64.39-1.02V1.44c0-.38-.14-.75-.39-1.02a1.27 1.27 0 00-.93-.42z"/>
  <path d="M13.53 5.02v.33c0 .1 0 0 0 0a5.15 5.15 0 01-1.15 2.74 5.72 5.72 0 01-2.73 1.7s.9-1.3 1.84-2.59h-.11a2.16 2.16 0 112.15-2.18zM8.36 5.06v.32c0 .11 0 0 0 0A5.15 5.15 0 017.2 8.12a5.72 5.72 0 01-2.73 1.7s.9-1.3 1.84-2.58h-.11a2.16 2.16 0 112.15-2.18z"/>
  <defs>
    <linearGradient id="paint0_linear" x1="8.72" y1="0" x2="8.72" y2="14.4" gradientUnits="userSpaceOnUse">
      <stop stop-color="#FFF"/>
      <stop offset="1" stop-color="#E1EDF3"/>
    </linearGradient>
  </defs>
</svg>
